;FLAVOR:Marlin
;TIME:701
;Filament used: 0.813914m
;Layer height: 0.2
;MINX:54.201
;MINY:121.845
;MINZ:0.25
;MAXX:200.799
;MAXY:128.985
;MAXZ:2.05
;Generated with Cura_SteamEngine 4.11.0
M140 S60
M105
M190 S60
M104 S200
M105
M109 S200
M82 ;absolute extrusion mode
M82
G90
G28 X
G28 Y
G28 Z
G29
G91
G1 Z0
G90
M82
G92 E0
G1 X125 Y245 F3000
G1 Z0
G92 E0
G92 E0
G1 F3000 E-5
;LAYER_COUNT:10
;LAYER:0
M106 S25.5
;MESH:BPS_blocbatterie.stl
G0 F3600 X58.896 Y127.4 Z0.25
;TYPE:WALL-INNER
G1 F3000 E0
G1 F1800 X59.223 Y127.171 E0.01375
G1 X59.506 Y126.889 E0.02752
G1 X59.736 Y126.561 E0.04132
G1 X59.904 Y126.199 E0.05507
G1 X60.007 Y125.813 E0.06883
G1 X60.042 Y125.415 E0.08259
G1 X60.007 Y125.017 E0.09636
G1 X59.904 Y124.633 E0.11005
G1 X59.736 Y124.269 E0.12387
G1 X59.505 Y123.942 E0.13766
G1 X59.223 Y123.66 E0.1514
G1 X58.896 Y123.431 E0.16515
G1 X58.535 Y123.261 E0.1789
G1 X58.148 Y123.158 E0.19269
G1 X57.75 Y123.123 E0.20646
G1 X57.352 Y123.158 E0.22022
G1 X56.965 Y123.261 E0.23402
G1 X56.604 Y123.431 E0.24776
G1 X56.277 Y123.66 E0.26152
G1 X55.995 Y123.942 E0.27526
G1 X55.764 Y124.269 E0.28905
G1 X55.596 Y124.633 E0.30286
G1 X55.493 Y125.017 E0.31656
G1 X55.458 Y125.415 E0.33032
G1 X55.493 Y125.813 E0.34409
G1 X55.596 Y126.199 E0.35785
G1 X55.764 Y126.561 E0.3716
G1 X55.994 Y126.889 E0.3854
G1 X56.277 Y127.171 E0.39916
G1 X56.604 Y127.4 E0.41291
G1 X56.965 Y127.57 E0.42666
G1 X57.353 Y127.673 E0.44049
G1 X57.75 Y127.707 E0.45422
G1 X58.147 Y127.673 E0.46794
G1 X58.535 Y127.57 E0.48177
G1 X58.896 Y127.4 E0.49552
G0 F3600 X58.715 Y127.087
;TYPE:WALL-OUTER
G1 F1800 X58.991 Y126.894 E0.50712
G1 X59.229 Y126.656 E0.51872
G1 X59.423 Y126.38 E0.53034
G1 X59.564 Y126.076 E0.54189
G1 X59.651 Y125.75 E0.55351
G1 X59.681 Y125.415 E0.5651
G1 X59.651 Y125.08 E0.57668
G1 X59.564 Y124.756 E0.58824
G1 X59.423 Y124.45 E0.59985
G1 X59.229 Y124.175 E0.61144
G1 X58.991 Y123.937 E0.62304
G1 X58.715 Y123.744 E0.63464
G1 X58.411 Y123.601 E0.64621
G1 X58.085 Y123.514 E0.65784
G1 X57.75 Y123.484 E0.66943
G1 X57.415 Y123.514 E0.68101
G1 X57.089 Y123.601 E0.69264
G1 X56.785 Y123.744 E0.70421
G1 X56.509 Y123.937 E0.71581
G1 X56.271 Y124.175 E0.72741
G1 X56.077 Y124.45 E0.739
G1 X55.936 Y124.756 E0.75061
G1 X55.849 Y125.08 E0.76217
G1 X55.819 Y125.415 E0.77375
G1 X55.849 Y125.75 E0.78534
G1 X55.936 Y126.076 E0.79696
G1 X56.077 Y126.38 E0.80851
G1 X56.271 Y126.656 E0.82013
G1 X56.509 Y126.894 E0.83173
G1 X56.785 Y127.087 E0.84333
G1 X57.089 Y127.23 E0.8549
G1 X57.415 Y127.317 E0.86653
G1 X57.75 Y127.346 E0.87811
G1 X58.085 Y127.317 E0.88969
G1 X58.411 Y127.23 E0.90132
G1 X58.715 Y127.087 E0.91289
G0 F3600 X58.879 Y126.973
G0 X59.105 Y127.298
G1 F3000 E-4.08711
G0 F3600 X196.104 Y127.4
;TYPE:WALL-INNER
G1 F3000 E0.91289
G1 F1800 X196.465 Y127.57 E0.92664
G1 X196.853 Y127.673 E0.94047
G1 X197.25 Y127.707 E0.9542
G1 X197.647 Y127.673 E0.96792
G1 X198.035 Y127.57 E0.98175
G1 X198.396 Y127.4 E0.9955
G1 X198.723 Y127.171 E1.00925
G1 X199.006 Y126.889 E1.02302
G1 X199.236 Y126.561 E1.03682
G1 X199.404 Y126.199 E1.05056
G1 X199.507 Y125.813 E1.06433
G1 X199.542 Y125.415 E1.07809
G1 X199.507 Y125.017 E1.09186
G1 X199.404 Y124.633 E1.10555
G1 X199.236 Y124.269 E1.11936
G1 X199.005 Y123.942 E1.13316
G1 X198.723 Y123.66 E1.1469
G1 X198.396 Y123.431 E1.16065
G1 X198.035 Y123.261 E1.1744
G1 X197.648 Y123.158 E1.18819
G1 X197.25 Y123.123 E1.20196
G1 X196.852 Y123.158 E1.21572
G1 X196.465 Y123.261 E1.22952
G1 X196.104 Y123.431 E1.24326
G1 X195.777 Y123.66 E1.25702
G1 X195.495 Y123.942 E1.27076
G1 X195.264 Y124.269 E1.28455
G1 X195.096 Y124.633 E1.29836
G1 X194.993 Y125.017 E1.31206
G1 X194.958 Y125.415 E1.32582
G1 X194.993 Y125.813 E1.33958
G1 X195.096 Y126.199 E1.35335
G1 X195.264 Y126.561 E1.3671
G1 X195.494 Y126.889 E1.3809
G1 X195.777 Y127.171 E1.39466
G1 X196.104 Y127.4 E1.40841
G0 F3600 X196.285 Y127.087
;TYPE:WALL-OUTER
G1 F1800 X196.589 Y127.23 E1.41999
G1 X196.915 Y127.317 E1.43161
G1 X197.25 Y127.346 E1.4432
G1 X197.585 Y127.317 E1.45478
G1 X197.911 Y127.23 E1.4664
G1 X198.215 Y127.087 E1.47798
G1 X198.491 Y126.894 E1.48958
G1 X198.729 Y126.656 E1.50117
G1 X198.923 Y126.38 E1.5128
G1 X199.064 Y126.076 E1.52434
G1 X199.151 Y125.75 E1.53597
G1 X199.181 Y125.415 E1.54755
G1 X199.151 Y125.08 E1.55914
G1 X199.064 Y124.756 E1.5707
G1 X198.923 Y124.45 E1.5823
G1 X198.729 Y124.175 E1.5939
G1 X198.491 Y123.937 E1.60549
G1 X198.215 Y123.744 E1.6171
G1 X197.911 Y123.601 E1.62867
G1 X197.585 Y123.514 E1.64029
G1 X197.25 Y123.484 E1.65188
G1 X196.915 Y123.514 E1.66347
G1 X196.589 Y123.601 E1.67509
G1 X196.285 Y123.744 E1.68667
G1 X196.009 Y123.937 E1.69827
G1 X195.771 Y124.175 E1.70986
G1 X195.577 Y124.45 E1.72146
G1 X195.436 Y124.756 E1.73306
G1 X195.349 Y125.08 E1.74462
G1 X195.319 Y125.415 E1.75621
G1 X195.349 Y125.75 E1.7678
G1 X195.436 Y126.076 E1.77942
G1 X195.577 Y126.38 E1.79096
G1 X195.771 Y126.656 E1.80259
G1 X196.009 Y126.894 E1.81418
G1 X196.285 Y127.087 E1.82578
G0 F3600 X196.466 Y127.172
G0 X196.296 Y127.531
G0 X197.235 Y128.625
;TYPE:WALL-INNER
G1 F1800 X57.738 Y128.624 E6.63152
G1 X56.984 Y128.531 E6.65769
G1 X56.258 Y128.257 E6.68442
G1 X55.624 Y127.819 E6.71097
G1 X55.105 Y127.232 E6.73796
G1 X54.752 Y126.559 E6.76414
G1 X54.566 Y125.813 E6.79063
G1 X54.566 Y125.016 E6.81809
G1 X54.752 Y124.272 E6.84451
G1 X55.105 Y123.599 E6.87069
G1 X55.624 Y123.012 E6.89768
G1 X56.258 Y122.574 E6.92423
G1 X56.98 Y122.3 E6.95083
G1 X57.779 Y122.205 E6.97855
G1 X197.221 Y122.205 E11.78239
G1 X198.02 Y122.3 E11.81011
G1 X198.742 Y122.574 E11.83671
G1 X199.376 Y123.012 E11.86326
G1 X199.895 Y123.599 E11.89025
G1 X200.248 Y124.272 E11.91643
G1 X200.434 Y125.016 E11.94285
G1 X200.434 Y125.813 E11.97031
G1 X200.248 Y126.559 E11.9968
G1 X199.895 Y127.232 E12.02298
G1 X199.376 Y127.819 E12.04997
G1 X198.742 Y128.257 E12.07652
G1 X198.016 Y128.531 E12.10325
G1 X197.235 Y128.625 E12.13035
G0 F3600 X197.239 Y128.985
;TYPE:WALL-OUTER
G1 F1800 X57.733 Y128.984 E16.93639
G1 X57.318 Y128.959 E16.95072
G1 X56.895 Y128.881 E16.96553
G1 X56.483 Y128.753 E16.9804
G1 X56.091 Y128.576 E16.99521
G1 X55.725 Y128.355 E17.00994
G1 X55.379 Y128.084 E17.02508
G1 X55.081 Y127.786 E17.0396
G1 X54.811 Y127.441 E17.0547
G1 X54.59 Y127.074 E17.06945
G1 X54.414 Y126.684 E17.0842
G1 X54.284 Y126.268 E17.09921
G1 X54.206 Y125.848 E17.11393
G1 X54.206 Y124.982 E17.14376
G1 X54.284 Y124.563 E17.15844
G1 X54.414 Y124.147 E17.17346
G1 X54.59 Y123.757 E17.1882
G1 X54.811 Y123.39 E17.20296
G1 X55.081 Y123.045 E17.21805
G1 X55.379 Y122.747 E17.23257
G1 X55.725 Y122.476 E17.24771
G1 X56.091 Y122.255 E17.26244
G1 X56.481 Y122.079 E17.27718
G1 X56.899 Y121.948 E17.29227
G1 X57.761 Y121.845 E17.32218
G1 X197.239 Y121.845 E22.12725
G1 X198.101 Y121.948 E22.15716
G1 X198.519 Y122.079 E22.17225
G1 X198.909 Y122.255 E22.18699
G1 X199.275 Y122.476 E22.20172
G1 X199.621 Y122.747 E22.21686
G1 X199.919 Y123.045 E22.23138
G1 X200.189 Y123.39 E22.24647
G1 X200.41 Y123.757 E22.26123
G1 X200.586 Y124.147 E22.27597
G1 X200.716 Y124.563 E22.29099
G1 X200.794 Y124.982 E22.30567
G1 X200.794 Y125.848 E22.33551
G1 X200.716 Y126.268 E22.35022
G1 X200.586 Y126.684 E22.36524
G1 X200.41 Y127.074 E22.37998
G1 X200.189 Y127.441 E22.39474
G1 X199.919 Y127.786 E22.40983
G1 X199.621 Y128.084 E22.42435
G1 X199.275 Y128.355 E22.43949
G1 X198.909 Y128.576 E22.45422
G1 X198.517 Y128.753 E22.46903
G1 X198.105 Y128.881 E22.4839
G1 X197.683 Y128.959 E22.49868
G1 X197.239 Y128.985 E22.514
G0 F3600 X197.039 Y128.985
G0 X197.04 Y128.589
G0 X197.209 Y128.275
;TYPE:SKIN
G1 F1800 X57.765 Y128.274 E27.31791
G1 X57.065 Y128.187 E27.34221
G1 X56.423 Y127.946 E27.36584
G1 X55.858 Y127.555 E27.38951
G1 X55.394 Y127.03 E27.41364
G1 X55.083 Y126.438 E27.43668
G1 X54.916 Y125.768 E27.46047
G1 X54.916 Y125.061 E27.48483
G1 X55.083 Y124.393 E27.50855
G1 X55.394 Y123.801 E27.53158
G1 X55.858 Y123.276 E27.55572
G1 X56.423 Y122.885 E27.57939
G1 X57.061 Y122.644 E27.60289
G1 X57.804 Y122.555 E27.62867
G1 X197.196 Y122.555 E32.43078
G1 X197.939 Y122.644 E32.45656
G1 X198.577 Y122.885 E32.48006
G1 X199.142 Y123.276 E32.50373
G1 X199.606 Y123.801 E32.52787
G1 X199.917 Y124.393 E32.5509
G1 X200.084 Y125.061 E32.57463
G1 X200.084 Y125.768 E32.59898
G1 X199.917 Y126.438 E32.62277
G1 X199.606 Y127.03 E32.64581
G1 X199.142 Y127.555 E32.66995
G1 X198.577 Y127.946 E32.69362
G1 X197.935 Y128.187 E32.71724
G1 X197.209 Y128.275 E32.74243
G0 F3600 X197.25 Y128.059
G1 F1800 X197.707 Y128.019 E32.75824
G1 X198.156 Y127.9 E32.77424
G1 X198.573 Y127.704 E32.79011
G1 X198.949 Y127.441 E32.80592
G1 X199.275 Y127.115 E32.82181
G1 X199.541 Y126.736 E32.83776
G1 X199.734 Y126.319 E32.85359
G1 X199.853 Y125.874 E32.86946
G1 X199.894 Y125.415 E32.88533
G1 X199.853 Y124.956 E32.90121
G1 X199.734 Y124.514 E32.91698
G1 X199.541 Y124.094 E32.9329
G1 X199.273 Y123.716 E32.94886
G1 X198.949 Y123.391 E32.96467
G1 X198.573 Y123.127 E32.9805
G1 X198.156 Y122.931 E32.99637
G1 X197.709 Y122.812 E33.01231
G1 X197.25 Y122.771 E33.02819
G1 X196.791 Y122.812 E33.04406
G1 X196.344 Y122.931 E33.06
G1 X195.927 Y123.127 E33.07587
G1 X195.551 Y123.391 E33.0917
G1 X195.227 Y123.716 E33.10751
G1 X194.959 Y124.094 E33.12347
G1 X194.766 Y124.514 E33.13939
G1 X194.647 Y124.956 E33.15516
G1 X194.606 Y125.415 E33.17104
G1 X194.647 Y125.874 E33.18692
G1 X194.766 Y126.319 E33.20278
G1 X194.959 Y126.736 E33.21861
G1 X195.225 Y127.115 E33.23457
G1 X195.551 Y127.441 E33.25045
G1 X195.927 Y127.704 E33.26626
G1 X196.344 Y127.9 E33.28213
G1 X196.793 Y128.019 E33.29813
G1 X197.25 Y128.059 E33.31394
G1 F3000 E28.31394
G0 F3600 X60.394 Y125.415
G1 F3000 E33.31394
G1 F1800 X60.353 Y124.956 E33.32981
G1 X60.234 Y124.514 E33.34558
G1 X60.041 Y124.094 E33.36151
G1 X59.773 Y123.716 E33.37747
G1 X59.449 Y123.391 E33.39328
G1 X59.073 Y123.127 E33.40911
G1 X58.656 Y122.931 E33.42498
G1 X58.209 Y122.812 E33.44091
G1 X57.75 Y122.771 E33.45679
G1 X57.291 Y122.812 E33.47267
G1 X56.844 Y122.931 E33.4886
G1 X56.427 Y123.127 E33.50448
G1 X56.051 Y123.391 E33.5203
G1 X55.727 Y123.716 E33.53611
G1 X55.459 Y124.094 E33.55208
G1 X55.266 Y124.514 E33.568
G1 X55.147 Y124.956 E33.58377
G1 X55.106 Y125.415 E33.59964
G1 X55.147 Y125.874 E33.61552
G1 X55.266 Y126.319 E33.63139
G1 X55.459 Y126.736 E33.64722
G1 X55.725 Y127.115 E33.66317
G1 X56.051 Y127.441 E33.67905
G1 X56.427 Y127.704 E33.69486
G1 X56.844 Y127.9 E33.71073
G1 X57.293 Y128.019 E33.72674
G1 X57.75 Y128.059 E33.74254
G1 X58.207 Y128.019 E33.75835
G1 X58.656 Y127.9 E33.77435
G1 X59.073 Y127.704 E33.79022
G1 X59.449 Y127.441 E33.80603
G1 X59.775 Y127.115 E33.82191
G1 X60.041 Y126.736 E33.83786
G1 X60.234 Y126.319 E33.85369
G1 X60.353 Y125.874 E33.86956
G1 X60.394 Y125.415 E33.88544
G1 F3000 E28.88544
G0 F3600 X58.778 Y128.018
G1 F3000 E33.88544
G1 F1800 X58.873 Y128.113 E33.89007
G0 F3600 X59.124 Y127.855
G1 F1800 X59.382 Y128.113 E33.90264
G0 F3600 X59.428 Y127.65
G1 F1800 X59.891 Y128.113 E33.92519
G0 F3600 X60.401 Y128.113
G1 F1800 X59.701 Y127.413 E33.9593
G0 F3600 X59.944 Y127.148
G1 F1800 X60.91 Y128.113 E34.00634
G0 F3600 X61.419 Y128.113
G1 F1800 X60.155 Y126.85 E34.0679
G0 F3600 X60.322 Y126.507
G1 F1800 X61.928 Y128.113 E34.14614
G0 F3600 X62.437 Y128.113
G1 F1800 X60.45 Y126.126 E34.24295
G0 F3600 X60.529 Y125.696
G1 F1800 X62.946 Y128.113 E34.3607
G0 F3600 X63.455 Y128.113
G1 F1800 X60.534 Y125.192 E34.50302
G0 F3600 X60.412 Y124.561
G1 F1800 X63.964 Y128.113 E34.67607
G0 F3600 X64.473 Y128.113
G1 F1800 X59.075 Y122.714 E34.93909
G0 F3600 X59.584 Y122.714
G1 F1800 X64.983 Y128.113 E35.20213
G0 F3600 X65.492 Y128.113
G1 F1800 X60.093 Y122.714 E35.46517
G0 F3600 X60.602 Y122.714
G1 F1800 X66.001 Y128.113 E35.72821
G0 F3600 X66.51 Y128.113
G1 F1800 X61.111 Y122.714 E35.99125
G0 F3600 X61.62 Y122.714
G1 F1800 X67.019 Y128.113 E36.25429
G0 F3600 X67.528 Y128.113
G1 F1800 X62.129 Y122.714 E36.51733
G0 F3600 X62.639 Y122.714
G1 F1800 X68.037 Y128.113 E36.78035
G0 F3600 X68.546 Y128.113
G1 F1800 X63.148 Y122.714 E37.04336
G0 F3600 X63.657 Y122.714
G1 F1800 X69.056 Y128.113 E37.3064
G0 F3600 X69.565 Y128.113
G1 F1800 X64.166 Y122.714 E37.56945
G0 F3600 X64.675 Y122.714
G1 F1800 X70.074 Y128.113 E37.83249
G0 F3600 X70.583 Y128.113
G1 F1800 X65.184 Y122.714 E38.09553
G0 F3600 X65.693 Y122.714
G1 F1800 X71.092 Y128.113 E38.35857
G0 F3600 X71.601 Y128.113
G1 F1800 X66.202 Y122.714 E38.62161
G0 F3600 X66.711 Y122.714
G1 F1800 X72.11 Y128.113 E38.88465
G0 F3600 X72.619 Y128.113
G1 F1800 X67.221 Y122.714 E39.14767
G0 F3600 X67.73 Y122.714
G1 F1800 X73.128 Y128.113 E39.41068
G0 F3600 X73.638 Y128.113
G1 F1800 X68.239 Y122.714 E39.67372
G0 F3600 X68.748 Y122.714
G1 F1800 X74.147 Y128.113 E39.93676
G0 F3600 X74.656 Y128.113
G1 F1800 X69.257 Y122.714 E40.1998
G0 F3600 X69.766 Y122.714
G1 F1800 X75.165 Y128.113 E40.46284
G0 F3600 X75.674 Y128.113
G1 F1800 X70.275 Y122.714 E40.72589
G0 F3600 X70.784 Y122.714
G1 F1800 X76.183 Y128.113 E40.98893
G0 F3600 X76.692 Y128.113
G1 F1800 X71.294 Y122.714 E41.25194
G0 F3600 X71.803 Y122.714
G1 F1800 X77.201 Y128.113 E41.51496
G0 F3600 X77.711 Y128.113
G1 F1800 X72.312 Y122.714 E41.778
G0 F3600 X72.821 Y122.714
G1 F1800 X78.22 Y128.113 E42.04104
G0 F3600 X78.729 Y128.113
G1 F1800 X73.33 Y122.714 E42.30408
G0 F3600 X73.839 Y122.714
G1 F1800 X79.238 Y128.113 E42.56712
G0 F3600 X79.747 Y128.113
G1 F1800 X74.348 Y122.714 E42.83016
G0 F3600 X74.857 Y122.714
G1 F1800 X80.256 Y128.113 E43.0932
G0 F3600 X80.765 Y128.113
G1 F1800 X75.366 Y122.714 E43.35624
G0 F3600 X75.876 Y122.714
G1 F1800 X81.274 Y128.113 E43.61926
G0 F3600 X81.783 Y128.113
G1 F1800 X76.385 Y122.714 E43.88228
G0 F3600 X76.894 Y122.714
G1 F1800 X82.293 Y128.113 E44.14532
G0 F3600 X82.802 Y128.113
G1 F1800 X77.403 Y122.714 E44.40836
G0 F3600 X77.912 Y122.714
G1 F1800 X83.311 Y128.113 E44.6714
G0 F3600 X83.82 Y128.113
G1 F1800 X78.421 Y122.714 E44.93444
G0 F3600 X78.93 Y122.714
G1 F1800 X84.329 Y128.113 E45.19748
G0 F3600 X84.838 Y128.113
G1 F1800 X79.439 Y122.714 E45.46052
G0 F3600 X79.949 Y122.714
G1 F1800 X85.347 Y128.113 E45.72354
G0 F3600 X85.856 Y128.113
G1 F1800 X80.458 Y122.714 E45.98655
G0 F3600 X80.967 Y122.714
G1 F1800 X86.366 Y128.113 E46.24959
G0 F3600 X86.875 Y128.113
G1 F1800 X81.476 Y122.714 E46.51264
G0 F3600 X81.985 Y122.714
G1 F1800 X87.384 Y128.113 E46.77568
G0 F3600 X87.893 Y128.113
G1 F1800 X82.494 Y122.714 E47.03872
G0 F3600 X83.003 Y122.714
G1 F1800 X88.402 Y128.113 E47.30176
G0 F3600 X88.911 Y128.113
G1 F1800 X83.512 Y122.714 E47.5648
G0 F3600 X84.021 Y122.714
G1 F1800 X89.42 Y128.113 E47.82784
G0 F3600 X89.929 Y128.113
G1 F1800 X84.531 Y122.714 E48.09086
G0 F3600 X85.04 Y122.714
G1 F1800 X90.438 Y128.113 E48.35387
G0 F3600 X90.948 Y128.113
G1 F1800 X85.549 Y122.714 E48.61691
G0 F3600 X86.058 Y122.714
G1 F1800 X91.457 Y128.113 E48.87995
G0 F3600 X91.966 Y128.113
G1 F1800 X86.567 Y122.714 E49.14299
G0 F3600 X87.076 Y122.714
G1 F1800 X92.475 Y128.113 E49.40603
G0 F3600 X92.984 Y128.113
G1 F1800 X87.585 Y122.714 E49.66908
G0 F3600 X88.094 Y122.714
G1 F1800 X93.493 Y128.113 E49.93212
G0 F3600 X94.002 Y128.113
G1 F1800 X88.604 Y122.714 E50.19513
G0 F3600 X89.113 Y122.714
G1 F1800 X94.511 Y128.113 E50.45815
G0 F3600 X95.021 Y128.113
G1 F1800 X89.622 Y122.714 E50.72119
G0 F3600 X90.131 Y122.714
G1 F1800 X95.53 Y128.113 E50.98423
G0 F3600 X96.039 Y128.113
G1 F1800 X90.64 Y122.714 E51.24727
G0 F3600 X91.149 Y122.714
G1 F1800 X96.548 Y128.113 E51.51031
G0 F3600 X97.057 Y128.113
G1 F1800 X91.658 Y122.714 E51.77335
G0 F3600 X92.167 Y122.714
G1 F1800 X97.566 Y128.113 E52.03639
G0 F3600 X98.075 Y128.113
G1 F1800 X92.676 Y122.714 E52.29943
G0 F3600 X93.186 Y122.714
G1 F1800 X98.584 Y128.113 E52.56245
G0 F3600 X99.093 Y128.113
G1 F1800 X93.695 Y122.714 E52.82547
G0 F3600 X94.204 Y122.714
G1 F1800 X99.603 Y128.113 E53.08851
G0 F3600 X100.112 Y128.113
G1 F1800 X94.713 Y122.714 E53.35155
G0 F3600 X95.222 Y122.714
G1 F1800 X100.621 Y128.113 E53.61459
G0 F3600 X101.13 Y128.113
G1 F1800 X95.731 Y122.714 E53.87763
G0 F3600 X96.24 Y122.714
G1 F1800 X101.639 Y128.113 E54.14067
G0 F3600 X102.148 Y128.113
G1 F1800 X96.749 Y122.714 E54.40371
G0 F3600 X97.259 Y122.714
