;FLAVOR:Marlin
;TIME:11486
;Filament used: 13.8539m
;Layer height: 0.2
;MINX:43.05
;MINY:26.035
;MINZ:0.25
;MAXX:220.69
;MAXY:209.675
;MAXZ:20.05
;Generated with Cura_SteamEngine 4.11.0
M140 S60
M105
M190 S60
M104 S200
M105
M109 S200
M82 ;absolute extrusion mode
M82
G90
G28 X
G28 Y
G28 Z
G29
G91
G1 Z0
G90
M82
G92 E0
G1 X125 Y245 F3000
G1 Z0
G92 E0
G92 E0
G1 F3000 E-5
;LAYER_COUNT:100
;LAYER:0
M106 S25.5
;MESH:BPS GABARIT.stl
G0 F3600 X191.974 Y121.138 Z0.25
;TYPE:WALL-INNER
G1 F3000 E0
G1 F1800 X192.572 Y121.419 E0.02276
G1 X193.211 Y121.589 E0.04554
G1 X193.87 Y121.647 E0.06833
G1 X194.528 Y121.589 E0.09109
G1 X195.167 Y121.419 E0.11387
G1 X195.766 Y121.138 E0.13666
G1 X196.307 Y120.759 E0.15942
G1 X196.774 Y120.292 E0.18217
G1 X197.153 Y119.751 E0.20493
G1 X197.434 Y119.152 E0.22772
G1 X197.604 Y118.513 E0.2505
G1 X197.662 Y117.855 E0.27326
G1 X197.604 Y117.196 E0.29605
G1 X197.434 Y116.557 E0.31883
G1 X197.153 Y115.959 E0.34159
G1 X196.774 Y115.418 E0.36434
G1 X196.308 Y114.95 E0.3871
G1 X195.766 Y114.57 E0.4099
G1 X195.166 Y114.291 E0.4327
G1 X194.528 Y114.12 E0.45545
G1 X193.87 Y114.063 E0.47821
G1 X193.211 Y114.12 E0.50099
G1 X192.572 Y114.291 E0.52378
G1 X191.974 Y114.57 E0.54651
G1 X191.432 Y114.95 E0.56932
G1 X190.965 Y115.418 E0.5921
G1 X190.586 Y115.959 E0.61485
G1 X190.306 Y116.557 E0.6376
G1 X190.135 Y117.196 E0.66039
G1 X190.078 Y117.855 E0.68318
G1 X190.135 Y118.513 E0.70593
G1 X190.306 Y119.151 E0.72868
G1 X190.585 Y119.751 E0.75148
G1 X190.965 Y120.292 E0.77426
G1 X191.432 Y120.759 E0.79701
G1 X191.974 Y121.138 E0.81979
G0 F3600 X192.155 Y120.825
;TYPE:WALL-OUTER
G1 F1800 X192.696 Y121.079 E0.84038
G1 X193.274 Y121.233 E0.86099
G1 X193.87 Y121.286 E0.8816
G1 X194.465 Y121.233 E0.90218
G1 X195.043 Y121.079 E0.92279
G1 X195.585 Y120.825 E0.94341
G1 X196.075 Y120.482 E0.96402
G1 X196.497 Y120.06 E0.98457
G1 X196.84 Y119.57 E1.00518
G1 X197.094 Y119.028 E1.0258
G1 X197.248 Y118.45 E1.04641
G1 X197.301 Y117.855 E1.06699
G1 X197.248 Y117.259 E1.0876
G1 X197.094 Y116.681 E1.10821
G1 X196.84 Y116.14 E1.1288
G1 X196.497 Y115.65 E1.1494
G1 X196.075 Y115.227 E1.16999
G1 X195.585 Y114.883 E1.19061
G1 X195.043 Y114.631 E1.2112
G1 X194.465 Y114.476 E1.23182
G1 X193.87 Y114.424 E1.2524
G1 X193.274 Y114.476 E1.27301
G1 X192.696 Y114.631 E1.29362
G1 X192.155 Y114.883 E1.31418
G1 X191.664 Y115.227 E1.33484
G1 X191.242 Y115.65 E1.35542
G1 X190.899 Y116.14 E1.37603
G1 X190.646 Y116.681 E1.3966
G1 X190.491 Y117.259 E1.41722
G1 X190.439 Y117.855 E1.43783
G1 X190.491 Y118.45 E1.4584
G1 X190.646 Y119.028 E1.47902
G1 X190.898 Y119.57 E1.49961
G1 X191.242 Y120.06 E1.52024
G1 X191.664 Y120.482 E1.5408
G1 X192.155 Y120.825 E1.56143
G0 F3600 X192.336 Y120.91
G0 X192.168 Y121.267
G1 F3000 E-3.43857
G0 F3600 X62.167 Y69.419
;TYPE:WALL-INNER
G1 F3000 E1.56143
G1 F1800 X62.766 Y69.138 E1.58422
G1 X63.307 Y68.759 E1.60698
G1 X63.774 Y68.292 E1.62973
G1 X64.153 Y67.751 E1.65249
G1 X64.434 Y67.152 E1.67528
G1 X64.604 Y66.513 E1.69806
G1 X64.662 Y65.855 E1.72082
G1 X64.604 Y65.196 E1.74361
G1 X64.434 Y64.557 E1.76639
G1 X64.153 Y63.959 E1.78915
G1 X63.774 Y63.418 E1.81191
G1 X63.308 Y62.95 E1.83466
G1 X62.766 Y62.57 E1.85746
G1 X62.166 Y62.291 E1.88026
G1 X61.528 Y62.12 E1.90301
G1 X60.87 Y62.063 E1.92577
G1 X60.211 Y62.12 E1.94856
G1 X59.572 Y62.291 E1.97134
G1 X58.974 Y62.57 E1.99408
G1 X58.432 Y62.95 E2.01688
G1 X57.965 Y63.418 E2.03966
G1 X57.586 Y63.959 E2.06241
G1 X57.306 Y64.557 E2.08516
G1 X57.135 Y65.196 E2.10795
G1 X57.078 Y65.855 E2.13074
G1 X57.135 Y66.513 E2.15349
G1 X57.306 Y67.151 E2.17625
G1 X57.585 Y67.751 E2.19904
G1 X57.965 Y68.292 E2.22182
G1 X58.432 Y68.759 E2.24457
G1 X58.974 Y69.138 E2.26735
G1 X59.572 Y69.419 E2.29012
G1 X60.211 Y69.589 E2.3129
G1 X60.87 Y69.647 E2.33569
G1 X61.528 Y69.589 E2.35844
G1 X62.167 Y69.419 E2.38122
G0 F3600 X62.043 Y69.079
;TYPE:WALL-OUTER
G1 F1800 X62.585 Y68.825 E2.40184
G1 X63.075 Y68.482 E2.42245
G1 X63.497 Y68.06 E2.44301
G1 X63.84 Y67.57 E2.46362
G1 X64.094 Y67.028 E2.48424
G1 X64.248 Y66.45 E2.50484
G1 X64.301 Y65.855 E2.52542
G1 X64.248 Y65.259 E2.54604
G1 X64.094 Y64.681 E2.56664
G1 X63.84 Y64.14 E2.58723
G1 X63.497 Y63.65 E2.60784
G1 X63.075 Y63.227 E2.62842
G1 X62.585 Y62.883 E2.64905
G1 X62.043 Y62.631 E2.66964
G1 X61.465 Y62.476 E2.69025
G1 X60.87 Y62.424 E2.71083
G1 X60.274 Y62.476 E2.73144
G1 X59.696 Y62.631 E2.75206
G1 X59.155 Y62.883 E2.77262
G1 X58.664 Y63.227 E2.79327
G1 X58.242 Y63.65 E2.81386
G1 X57.899 Y64.14 E2.83446
G1 X57.646 Y64.681 E2.85504
G1 X57.491 Y65.259 E2.87565
G1 X57.439 Y65.855 E2.89626
G1 X57.491 Y66.45 E2.91684
G1 X57.646 Y67.028 E2.93745
G1 X57.898 Y67.57 E2.95805
G1 X58.242 Y68.06 E2.97867
G1 X58.664 Y68.482 E2.99923
G1 X59.155 Y68.825 E3.01987
G1 X59.696 Y69.079 E3.04045
G1 X60.274 Y69.233 E3.06106
G1 X60.87 Y69.286 E3.08168
G1 X61.465 Y69.233 E3.10225
G1 X62.043 Y69.079 E3.12286
G0 F3600 X62.224 Y68.995
G0 X62.391 Y69.353
G1 F3000 E-1.87714
G0 F3600 X63.307 Y172.759
;TYPE:WALL-INNER
G1 F3000 E3.12286
G1 F1800 X63.774 Y172.292 E3.14561
G1 X64.153 Y171.751 E3.16837
G1 X64.434 Y171.152 E3.19116
G1 X64.604 Y170.513 E3.21394
G1 X64.662 Y169.855 E3.2367
G1 X64.604 Y169.197 E3.25946
G1 X64.434 Y168.557 E3.28227
G1 X64.153 Y167.959 E3.30503
G1 X63.774 Y167.418 E3.32779
G1 X63.308 Y166.95 E3.35054
G1 X62.766 Y166.57 E3.37334
G1 X62.166 Y166.291 E3.39614
G1 X61.528 Y166.12 E3.41889
G1 X60.87 Y166.063 E3.44165
G1 X60.211 Y166.12 E3.46444
G1 X59.572 Y166.291 E3.48722
G1 X58.974 Y166.57 E3.50996
G1 X58.432 Y166.95 E3.53276
G1 X57.965 Y167.418 E3.55554
G1 X57.586 Y167.959 E3.57829
G1 X57.306 Y168.557 E3.60104
G1 X57.135 Y169.197 E3.62386
G1 X57.078 Y169.855 E3.64662
G1 X57.135 Y170.513 E3.66937
G1 X57.306 Y171.151 E3.69213
G1 X57.585 Y171.751 E3.71492
G1 X57.965 Y172.292 E3.7377
G1 X58.432 Y172.759 E3.76045
G1 X58.974 Y173.138 E3.78323
G1 X59.572 Y173.419 E3.806
G1 X60.211 Y173.589 E3.82878
G1 X60.87 Y173.647 E3.85157
G1 X61.528 Y173.589 E3.87432
G1 X62.167 Y173.419 E3.8971
G1 X62.766 Y173.138 E3.9199
G1 X63.307 Y172.759 E3.94265
G0 F3600 X63.075 Y172.482
;TYPE:WALL-OUTER
G1 F1800 X63.497 Y172.06 E3.96321
G1 X63.84 Y171.57 E3.98382
G1 X64.094 Y171.028 E4.00444
G1 X64.248 Y170.45 E4.02505
G1 X64.301 Y169.855 E4.04562
G1 X64.248 Y169.26 E4.0662
G1 X64.094 Y168.681 E4.08684
G1 X63.84 Y168.14 E4.10743
G1 X63.497 Y167.65 E4.12804
G1 X63.075 Y167.227 E4.14862
G1 X62.585 Y166.883 E4.16925
G1 X62.043 Y166.631 E4.18984
G1 X61.465 Y166.476 E4.21046
G1 X60.87 Y166.424 E4.23103
G1 X60.274 Y166.476 E4.25164
G1 X59.696 Y166.631 E4.27226
G1 X59.155 Y166.883 E4.29282
G1 X58.664 Y167.227 E4.31347
G1 X58.242 Y167.65 E4.33406
G1 X57.899 Y168.14 E4.35466
G1 X57.646 Y168.681 E4.37524
G1 X57.491 Y169.26 E4.39589
G1 X57.439 Y169.855 E4.41646
G1 X57.491 Y170.45 E4.43704
G1 X57.646 Y171.028 E4.45765
G1 X57.898 Y171.57 E4.47825
G1 X58.242 Y172.06 E4.49887
G1 X58.664 Y172.482 E4.51943
G1 X59.155 Y172.825 E4.54007
G1 X59.696 Y173.079 E4.56066
G1 X60.274 Y173.233 E4.58126
G1 X60.87 Y173.286 E4.60188
G1 X61.465 Y173.233 E4.62245
G1 X62.043 Y173.079 E4.64306
G1 X62.585 Y172.825 E4.66368
G1 X63.075 Y172.482 E4.68429
G0 F3600 X63.216 Y172.341
G0 X63.496 Y172.621
G1 F3000 E-0.31571
G0 F3600 X121.094 Y185.395
;TYPE:WALL-INNER
G1 F3000 E4.68429
G1 F1800 X183.41 Y123.079 E7.72034
G1 X183.41 Y112.631 E8.08028
G1 X121.094 Y50.315 E11.11633
G1 X91.971 Y50.315 E12.11963
G1 X73.731 Y68.554 E13.00826
G1 X73.731 Y168.481 E16.45079
G1 X90.646 Y185.395 E17.27487
G1 X121.094 Y185.395 E18.32382
G0 F3600 X120.945 Y185.035
;TYPE:WALL-OUTER
G1 F1800 X183.05 Y122.93 E21.34959
G1 X183.05 Y112.78 E21.69926
G1 X120.945 Y50.675 E24.72503
G1 X92.12 Y50.675 E25.71807
G1 X74.091 Y68.703 E26.59642
G1 X74.091 Y168.332 E30.02868
G1 X90.795 Y185.035 E30.84248
G1 X120.945 Y185.035 E31.88116
G0 F3600 X121.086 Y184.894
G0 X121.366 Y185.174
G1 F3000 E26.88116
G0 F3600 X135.646 Y209.315
;TYPE:WALL-INNER
G1 F3000 E31.88116
G1 F1800 X87.594 Y209.315 E33.53658
G1 X43.41 Y165.131 E35.68923
G1 X43.41 Y70.579 E38.94659
G1 X87.594 Y26.395 E41.09925
G1 X135.646 Y26.395 E42.75466
G1 X220.33 Y111.079 E46.88048
G1 X220.33 Y124.631 E47.34736
G1 X135.646 Y209.315 E51.47318
G0 F3600 X135.796 Y209.675
;TYPE:WALL-OUTER
G1 F1800 X87.444 Y209.675 E53.13893
G1 X43.05 Y165.281 E55.30182
G1 X43.05 Y70.429 E58.56951
G1 X87.444 Y26.035 E60.7324
G1 X135.796 Y26.035 E62.39815
G1 X220.69 Y110.929 E66.5342
G1 X220.69 Y124.781 E67.01141
G1 X135.796 Y209.675 E71.14747
G0 F3600 X135.596 Y209.675
G0 X135.596 Y209.279
G0 X135.502 Y208.965
;TYPE:SKIN
G1 F1800 X87.738 Y208.965 E72.79296
G1 X43.76 Y164.987 E74.93558
G1 X43.76 Y70.723 E78.18302
G1 X87.738 Y26.745 E80.32564
G1 X135.502 Y26.745 E81.97113
G1 X219.98 Y111.223 E86.08692
G1 X219.98 Y124.487 E86.54387
G1 X135.502 Y208.965 E90.65966
G1 F3000 E85.65966
G0 F3600 X121.239 Y185.745
G1 F3000 E90.65966
G1 F1800 X183.76 Y123.224 E93.7057
G1 X183.76 Y112.486 E94.07563
G1 X121.239 Y49.965 E97.12167
G1 X91.826 Y49.965 E98.13496
G1 X73.381 Y68.409 E99.03358
G1 X73.381 Y168.626 E102.4861
G1 X90.501 Y185.745 E103.32016
G1 X121.239 Y185.745 E104.3791
G1 F3000 E99.3791
G0 F3600 X64.457 Y171.928
G1 F3000 E104.3791
G1 F1800 X64.764 Y171.272 E104.40405
G1 X64.95 Y170.574 E104.42894
G1 X65.014 Y169.855 E104.45381
G1 X64.95 Y169.136 E104.47868
G1 X64.764 Y168.437 E104.50359
G1 X64.457 Y167.782 E104.52851
G1 X64.044 Y167.192 E104.55333
G1 X63.534 Y166.681 E104.5782
G1 X62.941 Y166.265 E104.60315
G1 X62.286 Y165.961 E104.62803
G1 X61.589 Y165.774 E104.65289
G1 X60.87 Y165.711 E104.67775
G1 X60.15 Y165.774 E104.70265
G1 X59.452 Y165.961 E104.72755
G1 X58.799 Y166.266 E104.75238
G1 X58.206 Y166.681 E104.77731
G1 X57.696 Y167.192 E104.80218
G1 X57.282 Y167.783 E104.82704
G1 X56.976 Y168.436 E104.85189
G1 X56.789 Y169.136 E104.87685
G1 X56.726 Y169.855 E104.90171
G1 X56.789 Y170.574 E104.92658
G1 X56.976 Y171.271 E104.95144
G1 X57.281 Y171.926 E104.97633
G1 X57.696 Y172.518 E105.00124
G1 X58.206 Y173.028 E105.02608
G1 X58.797 Y173.442 E105.05094
G1 X59.452 Y173.749 E105.07586
G1 X60.15 Y173.935 E105.10075
G1 X60.87 Y173.999 E105.12565
G1 X61.589 Y173.935 E105.15052
G1 X62.287 Y173.749 E105.1754
G1 X62.943 Y173.442 E105.20036
G1 X63.533 Y173.028 E105.22519
G1 X64.043 Y172.518 E105.25003
G1 X64.457 Y171.928 E105.27486
G1 F3000 E100.27486
G0 F3600 X62.943 Y69.442
G1 F3000 E105.27486
G1 F1800 X63.533 Y69.028 E105.29969
G1 X64.043 Y68.518 E105.32454
G1 X64.457 Y67.928 E105.34937
G1 X64.764 Y67.272 E105.37432
G1 X64.95 Y66.574 E105.39921
G1 X65.014 Y65.855 E105.42408
G1 X64.95 Y65.135 E105.44898
G1 X64.764 Y64.437 E105.47387
G1 X64.457 Y63.782 E105.49879
G1 X64.044 Y63.192 E105.5236
G1 X63.534 Y62.681 E105.54847
G1 X62.941 Y62.265 E105.57342
G1 X62.286 Y61.961 E105.5983
G1 X61.589 Y61.774 E105.62316
G1 X60.87 Y61.711 E105.64803
G1 X60.15 Y61.774 E105.67292
G1 X59.452 Y61.961 E105.69782
G1 X58.799 Y62.266 E105.72265
G1 X58.206 Y62.681 E105.74758
G1 X57.696 Y63.192 E105.77245
G1 X57.282 Y63.783 E105.79731
G1 X56.976 Y64.436 E105.82216
G1 X56.789 Y65.135 E105.84708
G1 X56.726 Y65.855 E105.87198
G1 X56.789 Y66.574 E105.89685
G1 X56.976 Y67.271 E105.92171
G1 X57.281 Y67.926 E105.9466
G1 X57.696 Y68.518 E105.97151
G1 X58.206 Y69.028 E105.99636
G1 X58.797 Y69.442 E106.02121
G1 X59.452 Y69.749 E106.04613
G1 X60.15 Y69.935 E106.07102
G1 X60.87 Y69.999 E106.09592
G1 X61.589 Y69.935 E106.12079
G1 X62.287 Y69.749 E106.14568
G1 X62.943 Y69.442 E106.17063
G1 F3000 E101.17063
G0 F3600 X191.797 Y121.442
G1 F3000 E106.17063
G1 F1800 X192.452 Y121.749 E106.19555
G1 X193.15 Y121.935 E106.22043
G1 X193.87 Y121.999 E106.24534
G1 X194.589 Y121.935 E106.2702
G1 X195.287 Y121.749 E106.29509
G1 X195.943 Y121.442 E106.32004
G1 X196.533 Y121.028 E106.34487
G1 X197.043 Y120.518 E106.36972
G1 X197.457 Y119.928 E106.39455
G1 X197.764 Y119.272 E106.4195
G1 X197.95 Y118.574 E106.44439
G1 X198.014 Y117.855 E106.46925
G1 X197.95 Y117.135 E106.49416
G1 X197.764 Y116.437 E106.51904
G1 X197.457 Y115.782 E106.54396
G1 X197.044 Y115.192 E106.56877
G1 X196.534 Y114.681 E106.59365
G1 X195.941 Y114.265 E106.6186
G1 X195.286 Y113.961 E106.64348
G1 X194.589 Y113.774 E106.66834
G1 X193.87 Y113.711 E106.6932
G1 X193.15 Y113.774 E106.7181
G1 X192.452 Y113.961 E106.743
G1 X191.799 Y114.266 E106.76783
G1 X191.206 Y114.681 E106.79276
G1 X190.696 Y115.192 E106.81763
G1 X190.282 Y115.783 E106.84249
G1 X189.976 Y116.436 E106.86733
G1 X189.789 Y117.135 E106.89226
G1 X189.726 Y117.855 E106.91716
G1 X189.789 Y118.574 E106.94203
G1 X189.976 Y119.271 E106.96689
G1 X190.281 Y119.926 E106.99178
G1 X190.696 Y120.518 E107.01669
G1 X191.206 Y121.028 E107.04153
G1 X191.797 Y121.442 E107.06639
G1 F3000 E102.06639
G0 F3600 X219.819 Y111.377
G1 F3000 E107.06639
G1 F1800 X135.346 Y26.904 E111.18194
G0 F3600 X134.837 Y26.904
G1 F1800 X219.819 Y111.886 E115.32228
G0 F3600 X219.819 Y112.396
G1 F1800 X134.328 Y26.904 E119.48745
G0 F3600 X133.819 Y26.904
G1 F1800 X219.819 Y112.905 E123.67742
G0 F3600 X219.819 Y113.414
G1 F1800 X133.31 Y26.904 E127.89219
G0 F3600 X132.801 Y26.904
G1 F1800 X219.819 Y113.923 E132.13175
G0 F3600 X219.819 Y114.432
G1 F1800 X132.291 Y26.904 E136.39614
G0 F3600 X131.782 Y26.904
G1 F1800 X219.819 Y114.941 E140.68533
G0 F3600 X219.819 Y115.45
G1 F1800 X131.273 Y26.904 E144.99931
G0 F3600 X130.764 Y26.904
G1 F1800 X219.819 Y115.959 E149.33809
G0 F3600 X219.819 Y116.468
G1 F1800 X130.255 Y26.904 E153.70168
G0 F3600 X129.746 Y26.904
G1 F1800 X219.819 Y116.978 E158.09008
G0 F3600 X219.819 Y117.487
G1 F1800 X129.237 Y26.904 E162.50328
G0 F3600 X128.728 Y26.904
G1 F1800 X219.819 Y117.996 E166.94129
G0 F3600 X219.819 Y118.505
G1 F1800 X128.218 Y26.904 E171.40411
G0 F3600 X127.709 Y26.904
G1 F1800 X219.819 Y119.014 E175.89174
G0 F3600 X219.819 Y119.523
G1 F1800 X127.2 Y26.904 E180.40416
G0 F3600 X126.691 Y26.904
G1 F1800 X219.819 Y120.032 E184.94138
G0 F3600 X219.819 Y120.541
G1 F1800 X126.182 Y26.904 E189.5034
G0 F3600 X125.673 Y26.904
G1 F1800 X219.819 Y121.051 E194.09024
G0 F3600 X219.819 Y121.56
G1 F1800 X125.164 Y26.904 E198.70188
G0 F3600 X124.655 Y26.904
G1 F1800 X219.819 Y122.069 E203.33832
G0 F3600 X219.819 Y122.578
G1 F1800 X124.146 Y26.904 E207.99956
G0 F3600 X123.636 Y26.904
G1 F1800 X219.819 Y123.087 E212.68562
G0 F3600 X219.819 Y123.596
G1 F1800 X123.127 Y26.904 E217.39648
G0 F3600 X122.618 Y26.904
G1 F1800 X219.819 Y124.105 E222.13214
G0 F3600 X219.722 Y124.517
G1 F1800 X122.109 Y26.904 E226.88787
G0 F3600 X121.6 Y26.904
G1 F1800 X219.468 Y124.772 E231.65603
G0 F3600 X219.213 Y125.027
G1 F1800 X121.091 Y26.904 E236.43658
G0 F3600 X120.582 Y26.904
G1 F1800 X218.959 Y125.281 E241.22954
G0 F3600 X218.704 Y125.536
G1 F1800 X120.073 Y26.904 E246.03489
G0 F3600 X119.563 Y26.904
G1 F1800 X218.45 Y125.79 E250.85267
G0 F3600 X218.195 Y126.045
G1 F1800 X119.054 Y26.904 E255.68284
G0 F3600 X118.545 Y26.904
G1 F1800 X217.94 Y126.299 E260.5254
G0 F3600 X217.686 Y126.554
G1 F1800 X118.036 Y26.904 E265.38037
G0 F3600 X117.527 Y26.904
G1 F1800 X217.431 Y126.808 E270.24772
G0 F3600 X217.177 Y127.063
G1 F1800 X117.018 Y26.904 E275.12749
G0 F3600 X116.509 Y26.904
G1 F1800 X216.922 Y127.318 E280.01967
G0 F3600 X216.668 Y127.572
G1 F1800 X116 Y26.904 E284.92424
G0 F3600 X115.491 Y26.904
G1 F1800 X216.413 Y127.827 E289.84121
G0 F3600 X216.159 Y128.081
G1 F1800 X114.981 Y26.904 E294.7706
G0 F3600 X114.472 Y26.904
G1 F1800 X215.904 Y128.336 E299.7124
G0 F3600 X215.649 Y128.59
G1 F1800 X113.963 Y26.904 E304.66657
G0 F3600 X113.454 Y26.904
G1 F1800 X215.395 Y128.845 E309.63316
G0 F3600 X215.14 Y129.1
G1 F1800 X112.945 Y26.904 E314.61215
G0 F3600 X112.436 Y26.904
G1 F1800 X214.886 Y129.354 E319.60354
G0 F3600 X214.631 Y129.609
G1 F1800 X111.927 Y26.904 E324.60733
G0 F3600 X111.418 Y26.904
G1 F1800 X214.377 Y129.863 E329.62352
G0 F3600 X214.122 Y130.118
G1 F1800 X110.908 Y26.904 E334.65214
G0 F3600 X110.399 Y26.904
G1 F1800 X213.867 Y130.372 E339.69313
G0 F3600 X213.613 Y130.627
G1 F1800 X109.89 Y26.904 E344.74654
G0 F3600 X109.381 Y26.904
G1 F1800 X213.358 Y130.881 E349.81233
G0 F3600 X213.104 Y131.136
G1 F1800 X197.419 Y115.451 E350.5765
G1 X197.349 Y115.381
